X: 40
T:Blodau'r Gwinwydd
T:The Blossom of the Honey-suckle  (sic)
M:3/4
L:1/8
Q:200
C:Trad
S:51 Welsh Airs
R:Minuet
A:Wales
N:My dictionary gives honeysuckle as 'gwyddfid'.
N:'Gwinwydd' means 'vine' ('gwin' is 'wine').  BM.
N:           .
H:From a facsimile c.1840: A Choice Collection of Fifty-One Welsh Airs
H:adapted for The Harp, Piano-Forte, Harpsichord,
H:Violin, or Flute by Edward Jones
H:"Harper to His Late Majesty King George IV, when
H:Prince of Wales".
Z:brian_martin12345@yahoo.com
K:Am
E2|A4A2|A^GABcd|e2E2E2|E2c2B2|c3BE2|B3AB2|A2AcB^G|A4:||!
C2|(C3D)EF|G3FE2|A^GABcd|{cd}e2E2z2|(E3F)GA|{AF}G3FE2|F2E2D2|C6|!
(c3d)c>d|(B3c)Bc|A2AcBA|(^G3^F)E2|A2E2F2|E2c2B2|c2AcB^G|A4:||
